X:11
%%newpage
T:Take a Dance / Bus Stop Reel
T:Take a Dance
M:6/8
L:1/8
K:D
"Bm" B2 c d2 e | fed "A" c3 | "Bm" B2 c d2 e | f2 g feB |
B2 c d2 e | fed "F#m"c3 | "A"A2 B c2 d | e2 a ecA :|
|: "D" a2 "A" f g2 e | "D" f2 d "A" c3 | "Bm" B2 c d2 e | f2 g fdB |
"(C)""F#m" aaf "Em" gge | "(Bm)""D" ffd "F#m"c3 | "A" A2 B c2 d | e2 a ecA :|
T:
